img/social/twitter.svg

<svg width="37" height="31" viewBox="0 0 37 31" fill="none" xmlns="http://www.w3.org/2000/svg">
<path d="M32.7734 8.1875C34.1797 7.13281 35.4453 5.86719 36.4297 4.39062C35.1641 4.95312 33.6875 5.375 32.2109 5.51562C33.7578 4.60156 34.8828 3.19531 35.4453 1.4375C34.0391 2.28125 32.4219 2.91406 30.8047 3.26562C29.3984 1.78906 27.5 0.945312 25.3906 0.945312C21.3125 0.945312 18.0078 4.25 18.0078 8.32812C18.0078 8.89062 18.0781 9.45312 18.2188 10.0156C12.1016 9.66406 6.61719 6.71094 2.96094 2.28125C2.32812 3.33594 1.97656 4.60156 1.97656 6.00781C1.97656 8.53906 3.24219 10.7891 5.28125 12.125C4.08594 12.0547 2.89062 11.7734 1.90625 11.2109V11.2812C1.90625 14.8672 4.4375 17.8203 7.8125 18.5234C7.25 18.6641 6.54688 18.8047 5.91406 18.8047C5.42188 18.8047 5 18.7344 4.50781 18.6641C5.42188 21.6172 8.16406 23.7266 11.3984 23.7969C8.86719 25.7656 5.70312 26.9609 2.25781 26.9609C1.625 26.9609 1.0625 26.8906 0.5 26.8203C3.73438 28.9297 7.60156 30.125 11.8203 30.125C25.3906 30.125 32.7734 18.9453 32.7734 9.17188C32.7734 8.82031 32.7734 8.53906 32.7734 8.1875Z" fill="#1565D8"/>
</svg>

<svg width="37" height="31" fill="none" xmlns="http://www.w3.org/2000/svg"><path d="M32.773 8.188c1.407-1.055 2.672-2.32 3.657-3.797a13.838 13.838 0 0 1-4.22 1.125c1.548-.914 2.673-2.32 3.235-4.079a15.592 15.592 0 0 1-4.64 1.829A7.383 7.383 0 0 0 25.39.946a7.382 7.382 0 0 0-7.383 7.382c0 .563.07 1.125.21 1.688A21.42 21.42 0 0 1 2.962 2.28c-.633 1.055-.984 2.32-.984 3.727a7.264 7.264 0 0 0 3.304 6.117c-1.195-.07-2.39-.352-3.375-.914v.07c0 3.586 2.532 6.54 5.907 7.242-.563.141-1.266.282-1.899.282-.492 0-.914-.07-1.406-.14.914 2.952 3.656 5.062 6.89 5.132-2.53 1.969-5.695 3.164-9.14 3.164-.633 0-1.196-.07-1.758-.14 3.234 2.109 7.102 3.304 11.32 3.304 13.57 0 20.953-11.18 20.953-20.953v-.985z" fill="#1565D8"/></svg>
